; HEADER_BLOCK_START
; generated by OrcaSlicer 2.2.0 on 2024-12-04 at 23:16:03
; total layer number: 18
; filament_density: 1.24,1.24
; filament_diameter: 1.75,1.75
; max_z_height: 3.60
; HEADER_BLOCK_END

; THUMBNAIL_BLOCK_START

;
; THUMBNAIL_BLOCK_END

; THUMBNAIL_BLOCK_START

;
; THUMBNAIL_BLOCK_END

; external perimeters extrusion width = 0.40mm
; perimeters extrusion width = 0.44mm
; infill extrusion width = 0.44mm
; solid infill extrusion width = 0.48mm
; top infill extrusion width = 0.38mm
; support material extrusion width = 0.38mm
; first layer extrusion width = 0.48mm

; EXECUTABLE_BLOCK_START
EXCLUDE_OBJECT_DEFINE NAME=Base.stl_id_0_copy_0 CENTER=170,162.504 POLYGON=[[103.05,147.734],[103.076,147.439],[103.153,147.153],[103.278,146.884],[103.448,146.642],[103.657,146.432],[103.9,146.262],[104.169,146.137],[104.455,146.06],[216.667,116.944],[216.928,116.887],[217.195,116.872],[217.461,116.898],[217.719,116.966],[217.964,117.074],[218.189,117.219],[218.388,117.397],[218.557,117.604],[236.648,143.735],[236.778,143.957],[236.873,144.196],[236.931,144.446],[236.95,144.703],[236.95,195.934],[236.924,196.229],[236.847,196.516],[236.722,196.784],[236.552,197.027],[236.343,197.237],[236.1,197.407],[235.831,197.532],[235.545,197.608],[213.545,201.608],[177.345,208.109],[177.05,208.135],[160.05,208.135],[104.75,204.634],[104.455,204.608],[104.169,204.532],[103.9,204.407],[103.657,204.237],[103.448,204.027],[103.278,203.784],[103.153,203.516],[103.076,203.23],[103.05,202.934],[103.05,147.734]]
M73 P0 R27
;TYPE:Custom
START_PRINT EXTRUDER_TEMP=215 BED_TEMP=60
G90
G21
M83 ; use relative distances for extrusion
; filament start gcode
; MANUAL_TOOL_CHANGE T0
M106 S0
;LAYER_CHANGE
;Z:0.2
;HEIGHT:0.2
;BEFORE_LAYER_CHANGE
;0.2
G92 E0

G1 E-.5 F1800
;AFTER_LAYER_CHANGE
;0.2
;_SET_FAN_SPEED_CHANGING_LAYER
SET_VELOCITY_LIMIT ACCEL=500 ACCEL_TO_DECEL=250
; printing object Base.stl id:0 copy 0
EXCLUDE_OBJECT_START NAME=Base.stl_id_0_copy_0
G1 Z.6 F21000
G1 X196.678 Y201.129
G1 Z.6
G1 Z.2
G1 E.5 F1800
;TYPE:Inner wall
;WIDTH:0.479999
G1 F3000
G1 X196.566 Y201.223 E.00521
G1 X196.177 Y201.706 E.02209
G1 X195.924 Y202.335 E.02413
G1 X195.825 Y203.04 E.02536
G1 X195.698 Y203.313 E.01072
G1 X195.497 Y203.465 E.00895
G1 X195.204 Y203.525 E.01068
G1 X179.961 Y203.524 E.54289
G1 X179.4 Y203.624 E.02031
G1 X179.091 Y203.729 E.01162
G1 X178.654 Y203.981 E.01795
G1 X178.364 Y204.224 E.01347
G1 X177.942 Y204.763 E.0244
G1 X177.723 Y205.335 E.02182
G1 X177.657 Y205.679 E.01247
G1 X177.624 Y206.541 E.0307
G1 X177.496 Y206.814 E.01073
G1 X177.296 Y206.965 E.00895
G1 X177.002 Y207.026 E.01068
G1 X160.622 Y207.026 E.58338
G1 X159.948 Y207.013 E.02403
G1 X159.675 Y206.885 E.01073
G1 X159.515 Y206.666 E.00965
G1 X159.478 Y206.399 E.00962
G1 X159.446 Y205.748 E.02321
G1 X159.309 Y205.09 E.02392
G1 X159.007 Y204.543 E.02227
G1 X158.816 Y204.299 E.01103
G1 X158.412 Y203.957 E.01886
G1 X158.083 Y203.767 E.01352
G1 X157.57 Y203.584 E.0194
G1 X157.05 Y203.524 E.01866
G1 X104.671 Y203.524 E1.86556
G1 X104.37 Y203.384 E.01183
G1 X104.218 Y203.183 E.00895
G1 X104.157 Y202.89 E.01068
G1 X104.157 Y147.66 E1.96709
G1 X104.298 Y147.359 E.01183
G1 X104.499 Y147.208 E.00895
G1 X104.792 Y147.147 E.01068
G1 X151.939 Y147.147 E1.67921
G1 X152.655 Y147.001 E.02602
G1 X153.115 Y146.772 E.0183
G1 X153.527 Y146.454 E.01853
G1 X165.339 Y134.827 E.59032
G1 X165.607 Y134.618 E.01211
G1 X165.849 Y134.536 E.00911
G1 X202.093 Y128.1 E1.31107
G1 X202.581 Y127.946 E.01821
G1 X203.025 Y127.708 E.01794
G1 X216.71 Y118.169 E.59415
G1 X216.918 Y118.059 E.00836
G1 X217.176 Y117.995 E.00948
G1 X217.432 Y118.069 E.00948
G1 X217.695 Y118.305 E.0126
G1 X235.642 Y144.229 E1.12297
G1 X235.804 Y144.53 E.01219
G1 X235.843 Y144.87 E.01219
G1 X235.843 Y196.011 E1.82144
G1 X235.702 Y196.312 E.01183
G1 X235.501 Y196.463 E.00895
G1 X235.179 Y196.524 E.01169
G1 X216.173 Y196.523 E.67693
G1 X215.613 Y196.619 E.02024
G1 X215.312 Y196.719 E.0113
G1 X214.859 Y196.978 E.01859
G1 X214.568 Y197.222 E.01352
G1 X214.146 Y197.762 E.0244
G1 X213.926 Y198.334 E.02182
G1 X213.84 Y198.936 E.02167
G1 X213.827 Y200.039 E.03929
G1 X213.7 Y200.312 E.01073
G1 X213.499 Y200.463 E.00895
G1 X213.206 Y200.524 E.01068
G1 X198.163 Y200.524 E.53577
G1 X197.611 Y200.62 E.01996
G1 X197.321 Y200.714 E.01084
G1 X196.857 Y200.98 E.01905
G1 X196.709 Y201.104 E.00688
G1 X196.957 Y201.457 F21000
G1 F3000
G1 X196.901 Y201.504 E.0026
G1 X196.549 Y201.935 E.01979
G1 X196.335 Y202.485 E.02102
G1 X196.258 Y203.117 E.02268
G1 X196.136 Y203.45 E.01262
G1 X195.908 Y203.721 E.01262
G1 X195.602 Y203.898 E.01262
G1 X195.223 Y203.962 E.01368
G1 X180.001 Y203.962 E.54215
G1 X179.477 Y204.054 E.01895
G1 X179.265 Y204.132 E.00805
G1 X178.734 Y204.467 E.02237
G1 X178.404 Y204.856 E.01817
G1 X178.29 Y205.054 E.00811
G1 X178.094 Y205.691 E.02376
G1 X178.056 Y206.617 E.033
G1 X177.934 Y206.95 E.01262
G1 X177.707 Y207.221 E.01262
G1 X177.4 Y207.399 E.01262
G1 X177.021 Y207.463 E.01368
G1 X160.622 Y207.463 E.58406
G1 X159.872 Y207.445 E.02674
G1 X159.539 Y207.323 E.01262
G1 X159.267 Y207.096 E.01262
G1 X159.09 Y206.789 E.01262
G1 X159.042 Y206.413 E.0135
G1 X159.016 Y205.824 E.021
G1 X158.902 Y205.249 E.02087
G1 X158.629 Y204.761 E.0199
G1 X158.483 Y204.587 E.00811
G1 X157.975 Y204.195 E.02283
G1 X157.502 Y204.021 E.01795
G1 X157.05 Y203.961 E.01627
G1 X104.616 Y203.961 E1.8675
G1 X104.233 Y203.822 E.01451
G1 X103.962 Y203.594 E.01262
G1 X103.785 Y203.287 E.01262
G1 X103.72 Y202.909 E.01368
G1 X103.72 Y147.605 E1.96971
G1 X103.86 Y147.223 E.01451
G1 X104.088 Y146.951 E.01262
G1 X104.394 Y146.774 E.01262
G1 X104.773 Y146.71 E.01368
G1 X151.891 Y146.71 E1.67816
G1 X152.44 Y146.615 E.01986
G1 X152.899 Y146.392 E.01815
G1 X153.22 Y146.142 E.0145
G1 X165.033 Y134.516 E.59032
G1 X165.404 Y134.225 E.01681
G1 X165.741 Y134.111 E.01265
G1 X201.992 Y127.674 E1.31133
G1 X202.444 Y127.531 E.01688
G1 X202.775 Y127.35 E.01347
M73 P1 R27
G1 X216.46 Y117.81 E.59415
M73 P1 R27
G1 X216.87 Y117.596 E.01647
G1 X217.185 Y117.553 E.01133
G1 X217.498 Y117.609 E.01133
G1 X217.779 Y117.76 E.01133
G1 X218.035 Y118.028 E.01323
G1 X236.001 Y143.98 E1.12419
G1 X236.226 Y144.398 E.01691
G1 X236.28 Y144.87 E.01691
G1 X236.28 Y196.065 E1.82338
G1 X236.14 Y196.448 E.01451
G1 X235.912 Y196.719 E.01262
G1 X235.606 Y196.897 E.01262
G1 X235.179 Y196.961 E.01537
G1 X216.187 Y196.96 E.67644
G1 X215.525 Y197.101 E.02408
G1 X215.077 Y197.357 E.01837
G1 X214.903 Y197.503 E.00811
G1 X214.532 Y197.968 E.02118
G1 X214.337 Y198.483 E.01963
G1 X214.277 Y198.936 E.01627
G1 X214.259 Y200.115 E.042
G1 X214.138 Y200.448 E.01262
G1 X213.91 Y200.72 E.01262
G1 X213.603 Y200.897 E.01262
G1 X213.225 Y200.961 E.01368
G1 X198.184 Y200.961 E.53571
G1 X197.513 Y201.107 E.02444
G1 X197.075 Y201.358 E.01797
G1 X196.988 Y201.432 E.00408
G1 X197.222 Y201.802 F21000
;TYPE:Outer wall
G1 F3000
G1 X196.903 Y202.203 E.01825
G1 X196.734 Y202.69 E.01837
G1 X196.69 Y203.193 E.01798
G1 X196.516 Y203.669 E.01805
G1 X196.19 Y204.057 E.01805
G1 X195.752 Y204.311 E.01805
G1 X195.242 Y204.399 E.01842
G1 X180.028 Y204.399 E.54186
G1 X179.484 Y204.51 E.0198
G1 X179.034 Y204.786 E.01878
G1 X178.701 Y205.203 E.01902
G1 X178.531 Y205.703 E.01881
G1 X178.488 Y206.693 E.03529
G1 X178.314 Y207.169 E.01805
G1 X177.989 Y207.558 E.01805
G1 X177.55 Y207.811 E.01805
G1 X177.04 Y207.9 E.01842
G1 X160.059 Y207.9 E.60479
G1 X159.55 Y207.811 E.01842
G1 X159.111 Y207.558 E.01805
G1 X158.785 Y207.169 E.01805
G1 X158.65 Y206.835 E.01283
G1 X158.605 Y206.427 E.01463
G1 X158.586 Y205.9 E.01879
G1 X158.48 Y205.377 E.01898
G1 X158.212 Y204.931 E.01854
G1 X157.824 Y204.608 E.018
G1 X157.353 Y204.432 E.01791
G1 X157.05 Y204.399 E.01087
G1 X104.554 Y204.399 E1.86972
G1 X104.014 Y204.202 E.02045
G1 X103.626 Y203.876 E.01805
G1 X103.372 Y203.437 E.01805
G1 X103.283 Y202.928 E.01842
G1 X103.283 Y147.543 E1.97261
G1 X103.48 Y147.003 E.02045
G1 X103.805 Y146.615 E.01805
G1 X104.244 Y146.362 E.01805
G1 X104.754 Y146.273 E.01842
G1 X151.835 Y146.273 E1.67685
G1 X152.272 Y146.207 E.01576
G1 X152.702 Y146.002 E.01696
G1 X152.914 Y145.831 E.00969
G1 X164.726 Y134.204 E.59032
G1 X165.201 Y133.832 E.02151
G1 X165.632 Y133.686 E.01618
G1 X201.915 Y127.244 E1.3125
G1 X202.306 Y127.117 E.01464
G1 X202.525 Y126.991 E.00899
G1 X216.211 Y117.452 E.59415
G1 X216.742 Y117.172 E.02138
G1 X217.194 Y117.11 E.01627
G1 X217.644 Y117.191 E.01627
G1 X218.047 Y117.407 E.01627
G1 X218.375 Y117.751 E.01692
G1 X236.361 Y143.731 E1.12542
G1 X236.648 Y144.266 E.02164
G1 X236.717 Y144.87 E.02164
G1 X236.717 Y195.927 E1.81847
G1 X236.628 Y196.437 E.01842
G1 X236.374 Y196.876 E.01805
G1 X235.986 Y197.201 E.01805
G1 X235.633 Y197.342 E.01354
G1 X235.179 Y197.398 E.01629
G1 X216.232 Y197.397 E.67481
G1 X215.693 Y197.506 E.01958
G1 X215.259 Y197.762 E.01798
G1 X214.93 Y198.152 E.01815
G1 X214.748 Y198.633 E.01832
G1 X214.714 Y198.936 E.01087
G1 X214.691 Y200.191 E.04472
G1 X214.518 Y200.668 E.01805
G1 X214.192 Y201.056 E.01805
G1 X213.753 Y201.309 E.01805
G1 X213.244 Y201.398 E.01842
G1 X198.23 Y201.398 E.53473
G1 X197.692 Y201.507 E.01958
G1 X197.252 Y201.776 E.01836
G1 E-.35 F1800
;WIPE_START
G1 F3000
G1 X196.903 Y202.203 E-.08269
G1 X196.755 Y202.627 E-.06731
;WIPE_END
G1 Z.6 F21000
G1 X216.671 Y118.356 Z.6
G1 Z.2
G1 E.5 F1800
;TYPE:Bottom surface
;WIDTH:0.480679
G1 F6300
G1 X218.818 Y120.503 E.10831
G1 X220.211 Y122.515 E.08729
G1 X216.448 Y118.752 E.18985
G1 X216.083 Y119.006 E.01586
G1 X221.604 Y124.527 E.27852
G1 X222.997 Y126.539 E.08729
G1 X215.718 Y119.26 E.36719
G1 X215.353 Y119.515 E.01586
G1 X224.39 Y128.551 E.45586
G1 X225.783 Y130.563 E.08729
G1 X214.989 Y119.769 E.54453
G1 X214.624 Y120.023 E.01586
G1 X227.176 Y132.575 E.6332
G1 X228.568 Y134.587 E.08729
G1 X214.259 Y120.277 E.72188
G1 X213.894 Y120.532 E.01586
G1 X229.961 Y136.599 E.81055
G1 X231.354 Y138.611 E.08729
G1 X213.529 Y120.786 E.89922
M73 P2 R27
G1 X213.165 Y121.04 E.01586
M73 P2 R27
G1 X232.747 Y140.623 E.98789
G1 X234.14 Y142.635 E.08729
G1 X212.8 Y121.295 E1.07656
G1 X212.435 Y121.549 E.01586
G1 X235.46 Y144.574 E1.16157
G1 X235.487 Y144.629 E.00218
G1 X235.515 Y144.81 E.00651
G1 X235.515 Y145.248 E.01563
G1 X212.07 Y121.803 E1.18272
G1 X211.705 Y122.057 E.01586
G1 X235.515 Y145.867 E1.20112
G1 X235.515 Y146.486 E.02208
G1 X211.341 Y122.312 E1.21952
G1 X210.976 Y122.566 E.01586
G1 X235.515 Y147.105 E1.23792
G1 X235.515 Y147.724 E.02208
G1 X210.611 Y122.82 E1.25633
G1 X210.246 Y123.075 E.01586
G1 X235.515 Y148.343 E1.27473
G1 X235.515 Y148.962 E.02208
G1 X209.881 Y123.329 E1.29313
G1 X209.517 Y123.583 E.01586
G1 X235.515 Y149.581 E1.31154
G1 X235.515 Y150.2 E.02208
G1 X209.152 Y123.837 E1.32994
G1 X208.787 Y124.092 E.01586
G1 X235.515 Y150.819 E1.34834
G1 X235.515 Y151.438 E.02208
G1 X208.422 Y124.346 E1.36675
G1 X208.058 Y124.6 E.01586
G1 X235.515 Y152.058 E1.38515
G1 X235.515 Y152.677 E.02208
G1 X207.693 Y124.855 E1.40355
G1 X207.328 Y125.109 E.01586
G1 X235.515 Y153.296 E1.42196
G1 X235.515 Y153.915 E.02208
G1 X206.963 Y125.363 E1.44036
G1 X206.598 Y125.617 E.01586
G1 X235.515 Y154.534 E1.45876
G1 X235.515 Y155.153 E.02208
G1 X206.234 Y125.872 E1.47717
G1 X205.869 Y126.126 E.01586
G1 X235.515 Y155.772 E1.49557
G1 X235.515 Y156.391 E.02208
G1 X205.504 Y126.38 E1.51397
G1 X205.139 Y126.635 E.01586
G1 X235.515 Y157.01 E1.53237
G1 X235.515 Y157.629 E.02208
G1 X204.774 Y126.889 E1.55078
G1 X204.41 Y127.143 E.01586
G1 X235.515 Y158.248 E1.56918
G1 X235.515 Y158.867 E.02208
G1 X204.045 Y127.397 E1.58758
G1 X203.68 Y127.652 E.01586
G1 X235.515 Y159.487 E1.60599
G1 X235.515 Y160.106 E.02208
G1 X203.315 Y127.906 E1.62439
G1 X202.931 Y128.141 E.01606
G1 X235.515 Y160.725 E1.64377
M73 P3 R27
G1 X235.515 Y161.344 E.02208
M73 P3 R27
G1 X202.49 Y128.319 E1.66601
G1 X202.311 Y128.381 E.00677
G1 X202.001 Y128.449 E.01131
G1 X235.515 Y161.963 E1.69068
G1 X235.515 Y162.582 E.02208
G1 X201.475 Y128.543 E1.7172
M73 P3 R26
G1 X200.95 Y128.636 E.01905
M73 P3 R26
G1 X235.515 Y163.201 E1.74372
G1 X235.515 Y163.82 E.02208
G1 X200.424 Y128.729 E1.77025
G1 X199.898 Y128.823 E.01905
G1 X235.515 Y164.439 E1.79677
G1 X235.515 Y165.058 E.02208
G1 X199.372 Y128.916 E1.82329
G1 X198.847 Y129.009 E.01905
G1 X235.515 Y165.677 E1.84981
G1 X235.515 Y166.296 E.02208
G1 X198.321 Y129.103 E1.87633
G1 X197.795 Y129.196 E.01905
G1 X235.515 Y166.916 E1.90286
G1 X235.515 Y167.535 E.02208
G1 X197.27 Y129.289 E1.92938
G1 X196.744 Y129.383 E.01905
G1 X235.515 Y168.154 E1.9559
G1 X235.515 Y168.773 E.02208
G1 X196.218 Y129.476 E1.98242
G1 X195.692 Y129.569 E.01905
G1 X235.515 Y169.392 E2.00894
G1 X235.515 Y170.011 E.02208
G1 X195.167 Y129.663 E2.03547
G1 X194.641 Y129.756 E.01905
G1 X235.515 Y170.63 E2.06199
G1 X235.515 Y171.249 E.02208
G1 X194.115 Y129.85 E2.08851
G1 X193.589 Y129.943 E.01905
G1 X235.515 Y171.868 E2.11503
G1 X235.515 Y172.487 E.02208
G1 X193.064 Y130.036 E2.14155
G1 X192.538 Y130.13 E.01905
G1 X235.515 Y173.106 E2.16808
G1 X235.515 Y173.725 E.02208
G1 X192.012 Y130.223 E2.1946
G1 X191.486 Y130.316 E.01905
G1 X235.515 Y174.345 E2.22112
G1 X235.515 Y174.964 E.02208
G1 X190.961 Y130.41 E2.24764
G1 X190.435 Y130.503 E.01905
M73 P4 R26
G1 X235.515 Y175.583 E2.27416
M73 P4 R26
G1 X235.515 Y176.202 E.02208
G1 X189.909 Y130.596 E2.30069
G1 X189.384 Y130.69 E.01905
G1 X235.515 Y176.821 E2.32721
G1 X235.515 Y177.44 E.02208
G1 X188.858 Y130.783 E2.35373
G1 X188.332 Y130.876 E.01905
G1 X235.515 Y178.059 E2.38025
G1 X235.515 Y178.678 E.02208
G1 X187.806 Y130.97 E2.40677
G1 X187.281 Y131.063 E.01905
G1 X235.515 Y179.297 E2.43329
G1 X235.515 Y179.916 E.02208
G1 X186.755 Y131.156 E2.45982
G1 X186.229 Y131.25 E.01905
G1 X235.515 Y180.535 E2.48634
G1 X235.515 Y181.155 E.02208
G1 X185.703 Y131.343 E2.51286
G1 X185.178 Y131.437 E.01905
G1 X235.515 Y181.774 E2.53938
G1 X235.515 Y182.393 E.02208
G1 X184.652 Y131.53 E2.5659
G1 X184.126 Y131.623 E.01905
G1 X235.515 Y183.012 E2.59243
G1 X235.515 Y183.631 E.02208
G1 X183.6 Y131.717 E2.61895
G1 X183.075 Y131.81 E.01905
G1 X235.515 Y184.25 E2.64547
G1 X235.515 Y184.869 E.02208
G1 X182.549 Y131.903 E2.67199
G1 X182.023 Y131.997 E.01905
G1 X235.515 Y185.488 E2.69851
G1 X235.515 Y186.107 E.02208
G1 X181.498 Y132.09 E2.72504
G1 X180.972 Y132.183 E.01905
G1 X235.515 Y186.726 E2.75156
G1 X235.515 Y187.345 E.02208
G1 X180.446 Y132.277 E2.77808
M73 P5 R26
G1 X179.92 Y132.37 E.01905
M73 P5 R26
G1 X235.515 Y187.964 E2.8046
G1 X235.515 Y188.584 E.02208
G1 X179.395 Y132.463 E2.83112
G1 X178.869 Y132.557 E.01905
G1 X235.515 Y189.203 E2.85765
G1 X235.515 Y189.822 E.02208
G1 X178.343 Y132.65 E2.88417
G1 X177.817 Y132.743 E.01905
G1 X235.515 Y190.441 E2.91069
G1 X235.515 Y191.06 E.02208
G1 X177.292 Y132.837 E2.93721
G1 X176.766 Y132.93 E.01905
G1 X235.515 Y191.679 E2.96373
G1 X235.515 Y192.298 E.02208
G1 X176.24 Y133.023 E2.99026
G1 X175.714 Y133.117 E.01905
G1 X235.515 Y192.917 E3.01678
G1 X235.515 Y193.536 E.02208
G1 X175.189 Y133.21 E3.0433
G1 X174.663 Y133.304 E.01905
G1 X235.515 Y194.155 E3.06982
G1 X235.515 Y194.774 E.02208
G1 X174.137 Y133.397 E3.09634
G1 X173.612 Y133.49 E.01905
G1 X235.515 Y195.393 E3.12287
G1 X235.515 Y195.871 E.01705
G1 X235.497 Y195.994 E.00443
G1 X173.086 Y133.584 E3.14847
G1 X172.56 Y133.677 E.01905
G1 X235.079 Y196.196 E3.15392
G1 X234.46 Y196.196 E.02208
G1 X172.034 Y133.77 E3.14921
M73 P6 R26
G1 X171.509 Y133.864 E.01905
M73 P6 R26
G1 X233.841 Y196.196 E3.1445
G1 X233.222 Y196.196 E.02208
G1 X170.983 Y133.957 E3.13979
G1 X170.457 Y134.05 E.01905
G1 X232.602 Y196.196 E3.13508
G1 X231.983 Y196.196 E.02208
G1 X169.931 Y134.144 E3.13037
G1 X169.406 Y134.237 E.01905
G1 X231.364 Y196.196 E3.12566
G1 X230.745 Y196.196 E.02208
G1 X168.88 Y134.33 E3.12095
G1 X168.354 Y134.424 E.01905
G1 X230.126 Y196.196 E3.11624
G1 X229.507 Y196.196 E.02208
G1 X167.828 Y134.517 E3.11153
G1 X167.303 Y134.61 E.01905
G1 X228.888 Y196.195 E3.10681
G1 X228.269 Y196.195 E.02208
G1 X166.777 Y134.704 E3.1021
G1 X166.251 Y134.797 E.01905
G1 X227.65 Y196.195 E3.09739
G1 X227.03 Y196.195 E.02208
M73 P6 R25
G1 X165.752 Y134.917 E3.09134
M73 P6 R25
G1 X165.612 Y135.019 E.00617
G1 X165.422 Y135.206 E.00952
