; HEADER_BLOCK_START
; generated by OrcaSlicer 2.2.0 on 2024-12-04 at 23:13:19
; total layer number: 82
; filament_density: 1.24,1.24
; filament_diameter: 1.75,1.75
; max_z_height: 8.30
; HEADER_BLOCK_END

; THUMBNAIL_BLOCK_START

;
; THUMBNAIL_BLOCK_END

; THUMBNAIL_BLOCK_START

;
; THUMBNAIL_BLOCK_END

; external perimeters extrusion width = 0.40mm
; perimeters extrusion width = 0.44mm
; infill extrusion width = 0.44mm
; solid infill extrusion width = 0.48mm
; top infill extrusion width = 0.38mm
; support material extrusion width = 0.38mm
; first layer extrusion width = 0.48mm

; external perimeters extrusion width = 0.40mm
; perimeters extrusion width = 0.44mm
; infill extrusion width = 0.44mm
; solid infill extrusion width = 0.48mm
; top infill extrusion width = 0.38mm
; support material extrusion width = 0.38mm
; first layer extrusion width = 0.48mm

; EXECUTABLE_BLOCK_START
EXCLUDE_OBJECT_DEFINE NAME=MCU_Cover.stl_id_0_copy_0 CENTER=185.85,162.131 POLYGON=[[173.681,133.519],[173.694,133.323],[173.732,133.13],[173.795,132.945],[173.882,132.769],[173.991,132.605],[174.121,132.458],[174.268,132.329],[174.431,132.22],[174.607,132.133],[174.793,132.07],[174.985,132.031],[175.181,132.019],[194.319,132.018],[194.624,132.03],[194.928,132.068],[195.227,132.131],[195.52,132.218],[195.805,132.329],[196.08,132.464],[196.342,132.62],[196.591,132.798],[196.825,132.995],[197.041,133.212],[197.239,133.445],[197.416,133.694],[197.573,133.957],[197.707,134.231],[197.818,134.516],[197.906,134.809],[197.968,135.109],[198.006,135.412],[198.019,135.718],[198.019,186.949],[198.008,187.229],[197.976,187.507],[197.924,187.782],[197.85,188.052],[197.757,188.316],[197.644,188.572],[197.511,188.819],[197.361,189.055],[195.153,192.244],[174.431,181.03],[174.268,180.921],[174.121,180.792],[173.991,180.644],[173.882,180.481],[173.795,180.305],[173.732,180.119],[173.694,179.927],[173.681,179.731],[173.681,133.519]]
EXCLUDE_OBJECT_DEFINE NAME=Power_Switch.stl_id_1_copy_0 CENTER=145.831,164.88 POLYGON=[[141.981,164.88],[141.983,164.774],[141.989,164.667],[141.999,164.561],[142.013,164.455],[142.031,164.35],[142.053,164.246],[142.078,164.142],[142.108,164.04],[142.141,163.939],[142.178,163.839],[142.219,163.74],[142.263,163.644],[142.312,163.548],[142.363,163.455],[142.418,163.364],[142.476,163.275],[142.538,163.188],[142.603,163.103],[142.671,163.021],[142.742,162.942],[142.816,162.865],[142.893,162.791],[142.972,162.72],[143.054,162.652],[143.139,162.587],[143.226,162.525],[143.315,162.467],[143.406,162.412],[143.5,162.36],[143.595,162.312],[143.692,162.268],[143.79,162.227],[143.89,162.19],[143.991,162.157],[144.094,162.127],[144.197,162.102],[144.301,162.08],[144.406,162.062],[144.512,162.048],[144.618,162.038],[144.725,162.032],[144.831,162.03],[146.831,162.03],[146.938,162.032],[147.044,162.038],[147.15,162.048],[147.256,162.062],[147.361,162.08],[147.465,162.102],[147.569,162.127],[147.671,162.157],[147.773,162.19],[147.872,162.227],[147.971,162.268],[148.068,162.312],[148.163,162.36],[148.256,162.412],[148.348,162.467],[148.437,162.525],[148.524,162.587],[148.608,162.652],[148.69,162.72],[148.77,162.791],[148.847,162.865],[148.92,162.942],[148.991,163.021],[149.059,163.103],[149.124,163.188],[149.186,163.275],[149.244,163.364],[149.299,163.455],[149.351,163.548],[149.399,163.644],[149.443,163.74],[149.484,163.839],[149.521,163.939],[149.555,164.04],[149.584,164.142],[149.61,164.246],[149.632,164.35],[149.649,164.455],[149.663,164.561],[149.673,164.667],[149.679,164.774],[149.681,164.88],[149.679,164.987],[149.673,165.093],[149.663,165.199],[149.649,165.305],[149.632,165.41],[149.61,165.514],[149.584,165.618],[149.555,165.72],[149.521,165.821],[149.484,165.921],[149.443,166.02],[149.399,166.117],[149.351,166.212],[149.299,166.305],[149.244,166.396],[149.186,166.486],[149.124,166.572],[149.059,166.657],[148.991,166.739],[148.92,166.819],[148.847,166.895],[148.77,166.969],[148.69,167.04],[148.608,167.108],[148.524,167.173],[148.437,167.235],[148.348,167.293],[148.256,167.348],[148.163,167.4],[148.068,167.448],[147.971,167.492],[147.872,167.533],[147.773,167.57],[147.671,167.603],[147.569,167.633],[147.465,167.659],[147.361,167.68],[147.256,167.698],[147.15,167.712],[147.044,167.722],[146.938,167.728],[146.831,167.73],[144.831,167.73],[144.725,167.728],[144.618,167.722],[144.512,167.712],[144.406,167.698],[144.301,167.68],[144.197,167.659],[144.094,167.633],[143.991,167.603],[143.89,167.57],[143.79,167.533],[143.692,167.492],[143.595,167.448],[143.5,167.4],[143.406,167.348],[143.315,167.293],[143.226,167.235],[143.139,167.173],[143.054,167.108],[142.972,167.04],[142.893,166.969],[142.816,166.895],[142.742,166.819],[142.671,166.739],[142.603,166.657],[142.538,166.572],[142.476,166.486],[142.418,166.396],[142.363,166.305],[142.312,166.212],[142.263,166.117],[142.219,166.02],[142.178,165.921],[142.141,165.821],[142.108,165.72],[142.078,165.618],[142.053,165.514],[142.031,165.41],[142.013,165.305],[141.999,165.199],[141.989,165.093],[141.983,164.987],[141.981,164.88]]
M73 P0 R19
;TYPE:Custom
START_PRINT EXTRUDER_TEMP=215 BED_TEMP=60
G90
G21
M83 ; use relative distances for extrusion
; filament start gcode
; MANUAL_TOOL_CHANGE T0
M106 S0
;LAYER_CHANGE
;Z:0.2
;HEIGHT:0.2
;BEFORE_LAYER_CHANGE
;0.2
G92 E0

G1 E-.5 F1800
;AFTER_LAYER_CHANGE
;0.2
;_SET_FAN_SPEED_CHANGING_LAYER
SET_VELOCITY_LIMIT ACCEL=500 ACCEL_TO_DECEL=250
; printing object MCU Cover.stl id:0 copy 0
EXCLUDE_OBJECT_START NAME=MCU_Cover.stl_id_0_copy_0
G1 Z.6 F21000
G1 X182.831 Y127.001
G1 Z.6
G1 Z.2
G1 E.5 F1800
;TYPE:Support
;WIDTH:0.48
G1 F3000
G1 X183.447 Y127.184 E.02288
G1 X184.051 Y127.007 E.02244
G1 X184.965 Y127.007 E.03256
G1 X185.786 Y127.248 E.03045
G1 X186.638 Y126.998 E.03165
G1 X187.109 Y126.998 E.01676
G1 X187.555 Y126.998 E.01588
G1 X188.435 Y127.257 E.03266
G1 X189.206 Y127.752 E.03266
G1 X189.807 Y128.445 E.03267
G1 X190.187 Y129.28 E.03267
G1 X190.316 Y130.188 E.03267
G1 X190.183 Y131.095 E.03265
G1 X189.799 Y131.927 E.03262
G1 X189.198 Y132.616 E.03256
G1 X188.898 Y132.807 E.01267
G1 X180.594 Y132.807 E.29578
G1 X180.525 Y132.807 E.00244
G1 X180.255 Y132.638 E.01134
G1 X179.644 Y131.943 E.03296
G1 X179.257 Y131.103 E.03295
G1 X179.126 Y130.188 E.03293
G1 X179.26 Y129.275 E.03289
G1 X179.485 Y128.787 E.01913
G1 X179.648 Y128.436 E.01377
G1 X180.254 Y127.744 E.03278
G1 X181.031 Y127.252 E.03275
G1 X181.913 Y126.997 E.03271
G1 X182.765 Y127.001 E.03035
G1 X189.735 Y131.596 F21000
G1 F3000
G1 X189.735 Y129.237 E.08403
G1 X189.472 Y128.66 E.02259
G1 X189.25 Y128.403 E.01211
G1 X189.25 Y131.959 E.12663
G1 X188.939 Y132.314 E.01683
G1 X188.783 Y132.414 E.00657
G1 X188.764 Y132.414 E.0007
G1 X188.764 Y127.936 E.15949
G1 X188.278 Y127.624 E.02056
G1 X188.278 Y132.414 E.17061
G1 X187.793 Y132.414 E.0173
G1 X187.793 Y127.478 E.17579
G1 X187.498 Y127.392 E.01092
G1 X187.307 Y127.392 E.00682
G1 X187.307 Y132.414 E.17887
G1 X186.821 Y132.414 E.0173
G1 X186.821 Y127.391 E.17888
G1 X186.695 Y127.391 E.00451
G1 X186.336 Y127.497 E.01332
G1 X186.336 Y132.414 E.17514
G1 X185.85 Y132.414 E.0173
G1 X185.85 Y127.639 E.17007
G1 X185.785 Y127.658 E.0024
G1 X185.364 Y127.534 E.01563
G1 X185.364 Y132.414 E.1738
G1 X184.879 Y132.414 E.0173
G1 X184.879 Y127.4 E.17858
G1 X184.393 Y127.4 E.0173
G1 X184.393 Y132.414 E.17858
G1 X183.907 Y132.414 E.0173
G1 X183.907 Y127.459 E.17648
G1 X183.446 Y127.595 E.01713
G1 X183.422 Y127.587 E.0009
G1 X183.422 Y132.414 E.17191
G1 X182.936 Y132.414 E.0173
G1 X182.936 Y127.443 E.17706
G1 X182.773 Y127.394 E.00607
G1 X182.45 Y127.393 E.01148
G1 X182.45 Y132.414 E.17883
G1 X181.965 Y132.414 E.0173
G1 X181.965 Y127.392 E.17887
G1 X181.479 Y127.532 E.018
G1 X181.479 Y132.414 E.17389
G1 X180.994 Y132.414 E.0173
G1 X180.994 Y127.741 E.16643
G1 X180.513 Y128.046 E.02028
G1 X180.508 Y128.052 E.00027
G1 X180.508 Y132.33 E.15237
G1 X180.022 Y131.778 E.02619
G1 X180.022 Y128.606 E.11297
G1 X179.981 Y128.653 E.00224
G1 X179.842 Y128.952 E.01174
G1 X179.641 Y129.388 E.0171
G1 X179.537 Y130.097 E.02552
G1 X179.537 Y131.24 E.0407
G1 E-.35 F1800
;WIPE_START
G1 F3000
G1 X179.537 Y130.24 E-.15
;WIPE_END
G1 Z.6 F21000
G1 X176.172 Y178.74 Z.6
G1 Z.2
G1 E.5 F1800
;TYPE:Inner wall
;WIDTH:0.479999
G1 F3000
G1 X176.172 Y134.508 E1.57538
G1 X194.228 Y134.519 E.64311
G1 X194.614 Y134.551 E.01379
G1 X194.956 Y134.699 E.01327
G1 X195.324 Y135.059 E.01832
G1 X195.468 Y135.415 E.01369
G1 X195.524 Y135.815 E.01437
G1 X195.524 Y187.051 E1.82483
G1 X195.363 Y187.548 E.01861
G1 X194.528 Y188.763 E.05251
G1 X181.794 Y179.845 E.55368
G1 X181.154 Y179.461 E.02659
G1 X180.198 Y179.054 E.037
G1 X179.188 Y178.812 E.037
G1 X178.241 Y178.737 E.03384
G1 X176.212 Y178.74 E.07225
G1 X175.789 Y179.178 F21000
G1 F3000
G1 X175.735 Y179.178 E.0019
G1 X175.735 Y134.071 E1.60655
G1 X194.229 Y134.082 E.65869
M73 P1 R19
G1 X194.722 Y134.126 E.01764
M73 P1 R19
G1 X195.078 Y134.269 E.01367
G1 X195.534 Y134.616 E.02039
G1 X195.746 Y134.919 E.0132
G1 X195.937 Y135.459 E.02039
G1 X195.961 Y135.815 E.01271
G1 X195.961 Y187.12 E1.8273
G1 X195.739 Y187.774 E.02459
G1 X194.638 Y189.373 E.06916
G1 X181.556 Y180.212 E.56882
G1 X180.977 Y179.86 E.02413
G1 X180.09 Y179.478 E.03442
G1 X179.151 Y179.247 E.03442
G1 X178.241 Y179.174 E.03252
G1 X175.829 Y179.178 E.08594
G1 X175.789 Y179.615 F21000
;TYPE:Outer wall
G1 F3000
G1 X175.595 Y179.615 E.00693
G1 X175.383 Y179.562 E.00779
G1 X175.298 Y179.384 E.00701
G1 X175.298 Y133.789 E1.62396
G1 X175.426 Y133.657 E.00654
G1 X175.535 Y133.634 E.00398
G1 X194.229 Y133.645 E.6658
G1 X194.668 Y133.674 E.01569
G1 X195.154 Y133.813 E.01799
G1 X195.595 Y134.095 E.01867
G1 X195.966 Y134.46 E.01853
G1 X196.22 Y134.877 E.01737
G1 X196.369 Y135.377 E.01861
G1 X196.398 Y135.815 E.01562
G1 X196.398 Y187.179 E1.82942
G1 X196.3 Y187.499 E.01193
G1 X196.114 Y187.999 E.019
G1 X194.748 Y189.984 E.08581
G1 X181.318 Y180.578 E.584
G1 X180.8 Y180.26 E.02163
G1 X179.982 Y179.901 E.03184
G1 X179.115 Y179.683 E.03184
G1 X178.242 Y179.611 E.0312
G1 X175.829 Y179.615 E.08594
G1 E-.35 F1800
;WIPE_START
G1 F3000
G1 X175.595 Y179.615 E-.03518
G1 X175.383 Y179.562 E-.03279
G1 X175.298 Y179.384 E-.02954
G1 X175.298 Y179.034 E-.05249
;WIPE_END
G1 Z.6 F21000
G1 X177.355 Y141.489 Z.6
G1 Z.2
G1 E.5 F1800
;TYPE:Inner wall
G1 F3000
G1 X177.432 Y141.181 E.01133
G1 X177.741 Y140.821 E.01688
G1 X178.091 Y140.646 E.01392
G1 X178.397 Y140.602 E.01101
G1 X191.242 Y140.602 E.45751
G1 X191.542 Y140.644 E.01078
G1 X191.751 Y140.728 E.00803
G1 X191.963 Y140.874 E.00916
G1 X192.152 Y141.091 E.01024
G1 X192.285 Y141.373 E.01111
G1 X192.334 Y141.695 E.01161
G1 X192.334 Y169.041 E.97398
G1 X192.29 Y169.347 E.01101
G1 X192.169 Y169.619 E.01058
G1 X191.995 Y169.833 E.00983
G1 X191.796 Y169.983 E.00887
G1 X191.372 Y170.134 E.01602
G1 X188.908 Y170.134 E.08778
G1 X178.397 Y170.134 E.37438
G1 X178.091 Y170.09 E.01101
G1 X177.741 Y169.916 E.01392
G1 X177.432 Y169.556 E.01688
G1 X177.304 Y169.183 E.01406
G1 X177.304 Y141.695 E.97901
G1 X177.346 Y141.528 E.00613
G1 X177.767 Y141.592 F21000
G1 F3000
G1 X177.818 Y141.387 E.00755
G1 X178.003 Y141.171 E.01013
G1 X178.213 Y141.066 E.00835
G1 X179.218 Y141.039 E.03581
G1 X191.242 Y141.039 E.42824
G1 X191.547 Y141.115 E.0112
G1 X191.788 Y141.333 E.01155
G1 X191.868 Y141.502 E.00667
G1 X191.897 Y141.695 E.00697
G1 X191.897 Y169.041 E.97398
G1 X191.871 Y169.225 E.0066
G1 X191.694 Y169.516 E.01214
G1 X191.454 Y169.662 E.00998
G1 X191.241 Y169.697 E.00768
G1 X178.397 Y169.697 E.45749
G1 X178.213 Y169.671 E.0066
G1 X178.003 Y169.566 E.00835
G1 X177.818 Y169.35 E.01013
G1 X177.741 Y169.041 E.01133
G1 X177.741 Y141.695 E.97398
G1 X177.757 Y141.631 E.00235
G1 X178.178 Y141.695 F21000
;TYPE:Outer wall
G1 F3000
G1 X178.265 Y141.52 E.00696
G1 X178.397 Y141.477 E.00492
G1 X191.241 Y141.477 E.45749
G1 X191.386 Y141.531 E.00549
G1 X191.46 Y141.695 E.00642
G1 X191.46 Y169.041 E.97398
G1 X191.392 Y169.2 E.00613
G1 X191.241 Y169.26 E.00578
G1 X178.397 Y169.26 E.45749
G1 X178.265 Y169.216 E.00492
G1 X178.178 Y169.074 E.00595
G1 X178.178 Y141.735 E.97371
M73 P2 R19
G1 E-.35 F1800
M73 P2 R19
;WIPE_START
G1 F3000
G1 X178.265 Y141.52 E-.03479
G1 X178.397 Y141.477 E-.02073
G1 X179.026 Y141.477 E-.09448
;WIPE_END
G1 Z.6 F21000
G1 X193.863 Y134.65 Z.6
G1 Z.2
G1 E.5 F1800
;TYPE:Bottom surface
;WIDTH:0.480423
G1 F6300
G1 X195.196 Y135.982 E.06719
G1 X195.196 Y136.601 E.02206
G1 X193.441 Y134.846 E.08848
G1 X192.822 Y134.846 E.02207
G1 X195.196 Y137.22 E.11969
G1 X195.196 Y137.838 E.02206
G1 X192.203 Y134.845 E.15091
G1 X191.584 Y134.845 E.02207
G1 X195.196 Y138.457 E.18212
G1 X195.196 Y139.076 E.02206
G1 X190.965 Y134.845 E.21333
G1 X190.346 Y134.844 E.02207
G1 X195.196 Y139.695 E.24455
G1 X195.196 Y140.313 E.02206
G1 X189.727 Y134.844 E.27576
G1 X189.107 Y134.843 E.02207
G1 X195.196 Y140.932 E.30697
G1 X195.196 Y141.551 E.02206
G1 X188.488 Y134.843 E.33818
G1 X187.869 Y134.843 E.02207
G1 X195.196 Y142.169 E.3694
G1 X195.196 Y142.788 E.02206
G1 X187.25 Y134.842 E.40061
G1 X186.631 Y134.842 E.02207
G1 X195.196 Y143.407 E.43182
G1 X195.196 Y144.026 E.02206
G1 X192.627 Y141.457 E.12951
G1 X192.6 Y141.276 E.00652
G1 X192.426 Y140.909 E.01446
G1 X192.18 Y140.628 E.01333
G1 X191.905 Y140.438 E.01192
G1 X191.63 Y140.328 E.01055
G1 X191.477 Y140.306 E.00552
G1 X186.012 Y134.842 E.27552
G1 X185.393 Y134.841 E.02207
G1 X190.826 Y140.275 E.27394
G1 X190.207 Y140.275 E.02206
G1 X184.774 Y134.841 E.27395
G1 X184.155 Y134.841 E.02207
G1 X189.589 Y140.275 E.27397
G1 X188.97 Y140.275 E.02206
G1 X183.536 Y134.84 E.27399
G1 X182.917 Y134.84 E.02207
G1 X188.351 Y140.275 E.27401
G1 X187.733 Y140.275 E.02206
G1 X182.298 Y134.839 E.27403
G1 X181.678 Y134.839 E.02207
G1 X187.114 Y140.275 E.27404
G1 X186.495 Y140.275 E.02206
G1 X181.059 Y134.839 E.27406
G1 X180.44 Y134.838 E.02207
G1 X185.876 Y140.275 E.27408
G1 X185.258 Y140.275 E.02206
G1 X179.821 Y134.838 E.2741
G1 X179.202 Y134.838 E.02207
G1 X184.639 Y140.275 E.27412
G1 X184.02 Y140.275 E.02206
G1 X178.583 Y134.837 E.27414
G1 X177.964 Y134.837 E.02207
G1 X183.402 Y140.275 E.27415
G1 X182.783 Y140.275 E.02206
G1 X177.345 Y134.837 E.27417
G1 X176.726 Y134.836 E.02207
G1 X182.164 Y140.275 E.27419
G1 X181.545 Y140.275 E.02206
G1 X176.5 Y135.229 E.2544
G1 X176.5 Y135.848 E.02206
G1 X180.927 Y140.275 E.2232
G1 X180.308 Y140.275 E.02206
G1 X176.5 Y136.466 E.19201
G1 X176.5 Y137.085 E.02206
G1 X179.689 Y140.275 E.16081
G1 X179.07 Y140.275 E.02206
G1 X176.5 Y137.704 E.12962
G1 X176.5 Y138.322 E.02206
G1 X178.452 Y140.275 E.09842
G1 X177.996 Y140.331 E.01636
G1 X177.925 Y140.366 E.00285
G1 X176.5 Y138.941 E.07185
G1 X176.5 Y139.56 E.02206
G1 X177.521 Y140.582 E.05151
G1 X177.236 Y140.915 E.01564
G1 X176.5 Y140.179 E.03711
G1 X176.5 Y140.797 E.02206
G1 X177.058 Y141.355 E.02813
G1 X176.976 Y141.682 E.01199
G1 X176.976 Y141.892 E.00752
G1 X176.5 Y141.416 E.02402
G1 X176.5 Y142.035 E.02206
G1 X176.976 Y142.511 E.02402
G1 X176.976 Y143.13 E.02206
G1 X176.5 Y142.654 E.02402
G1 X176.5 Y143.272 E.02206
G1 X176.976 Y143.749 E.02402
G1 X176.976 Y144.367 E.02206
G1 X176.5 Y143.891 E.02402
G1 X176.5 Y144.51 E.02206
G1 X176.976 Y144.986 E.02402
G1 X176.976 Y145.605 E.02206
G1 X176.5 Y145.129 E.02401
G1 X176.5 Y145.747 E.02206
G1 X176.976 Y146.224 E.02401
G1 X176.976 Y146.842 E.02206
G1 X176.5 Y146.366 E.02401
G1 X176.5 Y146.985 E.02206
G1 X176.976 Y147.461 E.02401
G1 X176.976 Y148.08 E.02206
G1 X176.5 Y147.603 E.02401
G1 X176.5 Y148.222 E.02206
G1 X176.976 Y148.698 E.02401
G1 X176.976 Y149.317 E.02206
G1 X176.5 Y148.841 E.02401
G1 X176.5 Y149.46 E.02206
G1 X176.976 Y149.936 E.02401
G1 X176.976 Y150.555 E.02206
G1 X176.5 Y150.078 E.02401
G1 X176.5 Y150.697 E.02206
G1 X176.976 Y151.173 E.02401
G1 X176.976 Y151.792 E.02206
G1 X176.5 Y151.316 E.02401
G1 X176.5 Y151.935 E.02206
G1 X176.976 Y152.411 E.02401
G1 X176.976 Y153.029 E.02206
G1 X176.5 Y152.553 E.02401
G1 X176.5 Y153.172 E.02206
G1 X176.976 Y153.648 E.02401
G1 X176.976 Y154.267 E.02206
G1 X176.5 Y153.791 E.02401
G1 X176.5 Y154.409 E.02206
G1 X176.976 Y154.886 E.02401
G1 X176.976 Y155.504 E.02206
G1 X176.5 Y155.028 E.02401
